X: 223
T:Three Little Drummers, The
N: page 74
N: hexatonic
R:jig
M:6/8
L:1/8
R:jig
K:Ador
"Am"eAA eAA|"G"BAB GBd|"Am"eAA eAA|"G"def gfg|\
"Am"eAA eAA|"G"BAB GBd|"Em"efg edB|"G"BAG "Am"A3:|
|:"Am"eaa aga|"G"bab ged|"Am"eaa aga|"G"bab g2d|\
"Am"eaa eaa|"G"bab ged|"Em"efg edB|"G"BAG "Am"A3:|
